svg/note_remove.svg

<svg xmlns="http://www.w3.org/2000/svg" viewBox="0 0 24 24"><path d="M15 3H5c-1.11 0-2 .89-2 2v14a2 2 0 0 0 2 2h14c1.11 0 2-.89 2-2V9zm-1.46 13.12-1.42 1.42L10 15.41l-2.12 2.13-1.41-1.42L8.59 14l-2.12-2.12 1.41-1.41L10 12.59l2.12-2.12 1.42 1.41L11.41 14zM14 10V4.5l5.5 5.5z"/></svg>

<?xml version="1.0" encoding="UTF-8"?><!DOCTYPE svg PUBLIC "-//W3C//DTD SVG 1.1//EN" "http://www.w3.org/Graphics/SVG/1.1/DTD/svg11.dtd"><svg xmlns="http://www.w3.org/2000/svg" xmlns:xlink="http://www.w3.org/1999/xlink" version="1.1" id="mdi-note-remove" width="24" height="24" viewBox="0 0 24 24"><path d="M15 3H5C3.89 3 3 3.89 3 5V19C3 20.1 3.89 21 5 21H19C20.11 21 21 20.11 21 19V9L15 3M13.54 16.12L12.12 17.54L10 15.41L7.88 17.54L6.47 16.12L8.59 14L6.47 11.88L7.88 10.47L10 12.59L12.12 10.47L13.54 11.88L11.41 14L13.54 16.12M14 10V4.5L19.5 10H14Z" /></svg>
